public/Icons/tie.svg

<svg id="Layer_1" data-name="Layer 1" xmlns="http://www.w3.org/2000/svg" viewBox="0 0 600 200"><defs><style>.cls-1{fill:#f1c400;stroke:#183159;stroke-miterlimit:10;stroke-width:10px;}.cls-2{fill:#183159;}</style></defs><path class="cls-1" d="M108.27789,5H491.72211C548.7609,5,595,47.5329,595,99.99991v.00018C595,152.4671,548.7609,195,491.72211,195H108.27789C51.23908,195,5,152.4671,5,100.00009v-.00018C5,47.5329,51.23908,5,108.27789,5Z" transform="translate(0 0)"/><path class="cls-2" d="M222.196,41.76419H183.24585V27.70413h94.811V41.76419H238.91675V155.76566H222.196Z" transform="translate(0 0)"/><path class="cls-2" d="M308.83472,27.70413V155.76566H292.30444V27.70413Z" transform="translate(0 0)"/><path class="cls-2" d="M404.02515,95.72513H354.24487v46.17041h55.48047v13.87012H337.7146V27.70413h69.16016V41.57425H354.24487V82.04446h49.78028Z" transform="translate(0 0)"/></svg>

<svg id="Layer_1" data-name="Layer 1" xmlns="http://www.w3.org/2000/svg" viewBox="0 0 600 200"><defs><style>.cls-2{fill:#183159}</style></defs><path d="M108.278 5h383.444C548.761 5 595 47.533 595 100h0c0 52.467-46.24 95-103.278 95H108.278C51.239 195 5 152.467 5 100h0C5 47.533 51.24 5 108.278 5z" fill="#f1c400" stroke="#183159" stroke-miterlimit="10" stroke-width="10"/><path class="cls-2" d="M222.196 41.764h-38.95v-14.06h94.81v14.06h-39.14v114.002h-16.72zM308.835 27.704v128.062h-16.53V27.704zM404.025 95.725h-49.78v46.17h55.48v13.87h-72.01V27.706h69.16v13.87h-52.63v40.47h49.78z"/></svg>
